src/icons/28/Plus Circle Fill.svg

<svg fill="none" height="36" viewBox="0 0 36 36" width="36" xmlns="http://www.w3.org/2000/svg"><path clip-rule="evenodd" d="m3.85693 18c0-7.8109 6.33197-14.14285 14.14287-14.14285s14.1428 6.33195 14.1428 14.14285-6.3319 14.1429-14.1428 14.1429-14.14287-6.332-14.14287-14.1429zm14.14287-7.4571c.5681 0 1.0286.4605 1.0286 1.0285v5.4h5.4c.568 0 1.0285.4605 1.0285 1.0286s-.4605 1.0286-1.0285 1.0286h-5.4v5.4c0 .568-.4605 1.0285-1.0286 1.0285s-1.0286-.4605-1.0286-1.0285v-5.4h-5.4c-.568 0-1.0286-.4605-1.0286-1.0286s.4606-1.0286 1.0286-1.0286h5.4v-5.4c0-.568.4605-1.0285 1.0286-1.0285z" fill="#000" fill-rule="evenodd"/></svg>

<svg width="36" height="36" viewBox="0 0 36 36" fill="none" xmlns="http://www.w3.org/2000/svg">
<path fill-rule="evenodd" clip-rule="evenodd" d="M3.85693 18C3.85693 10.1891 10.1889 3.85715 17.9998 3.85715C25.8107 3.85715 32.1426 10.1891 32.1426 18C32.1426 25.8109 25.8107 32.1429 17.9998 32.1429C10.1889 32.1429 3.85693 25.8109 3.85693 18ZM17.9998 10.5429C18.5679 10.5429 19.0284 11.0034 19.0284 11.5714V16.9714H24.4284C24.9964 16.9714 25.4569 17.4319 25.4569 18C25.4569 18.5681 24.9964 19.0286 24.4284 19.0286H19.0284V24.4286C19.0284 24.9966 18.5679 25.4571 17.9998 25.4571C17.4317 25.4571 16.9712 24.9966 16.9712 24.4286V19.0286H11.5712C11.0032 19.0286 10.5426 18.5681 10.5426 18C10.5426 17.4319 11.0032 16.9714 11.5712 16.9714H16.9712V11.5714C16.9712 11.0034 17.4317 10.5429 17.9998 10.5429Z" fill="black"/>
</svg>
